tools/download-figma-icons/icons/outlined-large/attention.svg

<svg width="64" height="64" viewBox="0 0 64 64" fill="none" xmlns="http://www.w3.org/2000/svg">
<path d="M60.2601 49.75L36.7501 8.76C35.7601 7.03 33.9801 6 32.0001 6C30.0201 6 28.2401 7.03 27.2501 8.76L3.74006 49.75C2.75006 51.47 2.75006 53.53 3.74006 55.25C4.73006 56.97 6.51006 58 8.49006 58H55.5101C57.4901 58 59.2701 56.97 60.2601 55.25C61.2501 53.53 61.2501 51.47 60.2601 49.75ZM57.6701 53.75C57.2201 54.53 56.4101 55 55.5101 55H8.49006C7.59006 55 6.78006 54.53 6.33006 53.75C5.88006 52.97 5.88006 52.03 6.33006 51.25L29.8401 10.25C30.2901 9.47 31.1001 9 32.0001 9C32.9001 9 33.7101 9.47 34.1601 10.25L57.6701 51.25C58.1201 52.03 58.1201 52.97 57.6701 53.75Z" fill="black"/>
<path d="M33.5001 23.5H30.5001C30.0801 23.5 29.6701 23.68 29.3901 24C29.1101 24.31 28.9701 24.74 29.0101 25.16L30.5001 39.66C30.5801 40.42 31.2201 41.01 31.9901 41.01C32.7601 41.01 33.4001 40.43 33.4801 39.67L34.9901 25.17C35.0301 24.75 34.9001 24.33 34.6101 24.01C34.3201 23.69 33.9201 23.51 33.5001 23.51V23.5Z" fill="black"/>
<path d="M32 49C33.3807 49 34.5 47.8807 34.5 46.5C34.5 45.1193 33.3807 44 32 44C30.6193 44 29.5 45.1193 29.5 46.5C29.5 47.8807 30.6193 49 32 49Z" fill="black"/>
</svg>

<svg width="64" height="64" viewBox="0 0 64 64" fill="none" xmlns="http://www.w3.org/2000/svg"><path d="M60.26 49.75 36.75 8.76A5.42 5.42 0 0 0 32 6a5.42 5.42 0 0 0-4.75 2.76L3.74 49.75a5.464 5.464 0 0 0 0 5.5A5.432 5.432 0 0 0 8.49 58h47.02c1.98 0 3.76-1.03 4.75-2.75.99-1.72.99-3.78 0-5.5Zm-2.59 4c-.45.78-1.26 1.25-2.16 1.25H8.49c-.9 0-1.71-.47-2.16-1.25-.45-.78-.45-1.72 0-2.5l23.51-41C30.29 9.47 31.1 9 32 9c.9 0 1.71.47 2.16 1.25l23.51 41c.45.78.45 1.72 0 2.5Z" fill="currentColor"/><path d="M33.5 23.5h-3c-.42 0-.83.18-1.11.5-.28.31-.42.74-.38 1.16l1.49 14.5a1.496 1.496 0 0 0 2.98.01l1.51-14.5c.04-.42-.09-.84-.38-1.16-.29-.32-.69-.5-1.11-.5v-.01ZM32 49a2.5 2.5 0 1 0 0-5 2.5 2.5 0 0 0 0 5Z" fill="currentColor"/></svg>
